X:1
T:The Star-Spangled Banner
T:The Star-Spangled Banner
T:Service version (1918)
T:John Stafford Smith
T:Francis Scott Key
C:John Stafford Smith
Z:Francis Scott Key
%%score [ 1 2 3 4 ]
L:1/8
Q:1/4=80
M:3/4
K:Ab
V:1 treble nm="Soprano"
V:2 treble nm="Alto"
V:3 treble-8 nm="Tenor"
V:4 bass nm="Bass"
V:1
!f! (E>C) | A,2!<(! C2 E2!<)! | A4 !>!c3/2 B/ | A2!>(! C2 =D2!>)! | E4 E E | !>!c3 B A2 | G4 F G | %7
w: Oh _|say! can you|see, by the|dawn's ear- ly|light, What so|proud- ly we|hail'd at the|
 A2 A2 E2 | C2 A,2 E3/2 C/ | A,2!<(! C2 E2!<)! | A4 !>!c3/2 B/ | A2!>(! C2 =D2!>)! | E4 E E | %13
w: twi- light's last|gleam- ing? Whose broad|stripes and bright|stars, thro' the|per- il- ous|fight, O'er the|
 c3 B A2 | G4 F G | A2 A2 E2 | C2 A,2 c c |!<(! c2 d2 e2!<)! | e4!>(! d c | B2!>)!!<(! c2 d2!<)! | %20
w: ram- parts we|watch'd, were so|gal- lant- ly|stream- ing! And the|rock- ets' red|glare, the bombs|burst- ing in|
 d4 d2 | c3!>(! B A2 | G4!>)! F G | A2 C2 =D2 | E4 ||"^Chorus"[Q:1/4=70]!<(! E2!<)! | %26
w: air, Gave|proof thro' the|night that our|flag was still|there.|O|
!f! A2 A2 (AG) | F2 F2 F2 | B2!>(! (dc) (BA)!>)! |!>(! (A2 !fermata!G2)!>)! E E | %30
w: say, does that _|Star- Span- gled|Ban- ner _ yet _|wave _ O'er the|
!<(! (A3 B) c d!<)! |!ff! e4 A B | c3 d B2 | A4 |] %34
w: land _ of the|free and the|home of the|brave?|
V:2
!f! (E>C) | A,2!<(! C2 E2!<)! | C4 !>!C3/2 C/ | C2!>(! C2 B,2!>)! | B,4 E E | !>!E3 E E2 | E4 E E | %7
w: Oh _|say! can you|see, by the|dawn's ear- ly|light, What so|proud- ly we|hail'd at the|
 E2 A2 E2 | C2 A,2 E3/2 C/ | A,2!<(! C2 E2!<)! | C4 !>!C3/2 C/ | C2!>(! C2 B,2!>)! | B,4 E E | %13
w: twi- light's last|gleam- ing? Whose broad|stripes and bright|stars, thro' the|per- il- ous|fight, O'er the|
 E3 E E2 | E4 E E | E2 A2 E2 | C2 A,2 A A |!<(! A2 B2 c2!<)! | c4!>(! B A | G2!>)!!<(! A2 B2!<)! | %20
w: ram- parts we|watch'd, were so|gal- lant- ly|stream- ing! And the|rock- ets' red|glare, the bombs|burst- ing in|
 B4 E2 | E3!>(! E E2 | E4!>)! E E | E2 C2 B,2 | B,4 ||!<(! E2!<)! |!f! C2 D2 E2 | D2 D2 D2 | %28
w: air, Gave|proof thro' the|night that our|flag was still|there.|O|say, does that|Star- Span- gled|
 D2!>(! (DE) F2!>)! |!>(! !fermata!E4!>)! E E |!<(! E4 E A!<)! |!ff! A4 F =D | E3 F _D2 | C4 |] %34
w: Ban- ner _ yet|wave O'er the|land of the|free and the|home of the|brave?|
V:3
!f! (E>C) | A,2!<(! A2 B2!<)! | A4 !>!G3/2 G/ | A2!>(! A2 A2!>)! | G4 E E | !>!A3 G A2 | B4 B B | %7
w: Oh _|say! can you|see, by the|dawn's ear- ly|light, What so|proud- ly we|hail'd at the|
 A2 A2 E2 | C2 A,2 E3/2 C/ | A,2!<(! A2 B2!<)! | A4 !>!G3/2 G/ | A2!>(! A2 A2!>)! | G4 E E | %13
w: twi- light's last|gleam- ing? Whose broad|stripes and bright|stars, thro' the|per- il- ous|fight, O'er the|
 A3 G A2 | B4 B B | A2 A2 E2 | C2 A,2 c c |!<(! c2 d2 e2!<)! | e4!>(! d c | B2!>)!!<(! c2 d2!<)! | %20
w: ram- parts we|watch'd, were so|gal- lant- ly|stream- ing! And the|rock- ets' red|glare, the bombs|burst- ing in|
 d4 G2 | A3!>(! G A2 | B4!>)! B B | A2 A2 A2 | G4 ||!<(! E2!<)! |!f! A2 A2 A2 | A2 A2 =A2 | %28
w: air, Gave|proof thro' the|night that our|flag was still|there.|O|say, does that|Star- Span- gled|
 B2!>(! F2 (dc)!>)! |!>(! (c2 !fermata!B2)!>)! E E |!<(! (A3 B) c d!<)! |!ff! e4 c A | A3 A G2 | %33
w: Ban- ner yet _|wave _ O'er the|land _ of the|free and the|home of the|
 A4 |] %34
w: brave?|
V:4
!f! (E,>C,) | A,,2!<(! A,2 G,2!<)! | F,4 !>!=E,3/2 E,/ | F,2!>(! F,2 B,,2!>)! | E,4 E, E, | %5
w: Oh _|say! can you|see, by the|dawn's ear- ly|light, What so|
 !>!A,,3 B,, C,2 | E,4 D, D, | C,2 A,2 E,2 | C,2 A,,2 E,3/2 C,/ | A,,2!<(! A,2 G,2!<)! | %10
w: proud- ly we|hail'd at the|twi- light's last|gleam- ing? Whose broad|stripes and bright|
 F,4 !>!=E,3/2 E,/ | F,2!>(! F,2 B,,2!>)! | E,4 E, E, | A,,3 B,, C,2 | E,4 D, D, | C,2 A,2 E,2 | %16
w: stars, thro' the|per- il- ous|fight, O'er the|ram- parts we|watch'd, were so|gal- lant- ly|
 C,2 A,,2 A, A, |!<(! A,2 B,2 C2!<)! | C4!>(! B, A, | G,2!>)!!<(! A,2 B,2!<)! | B,4 E,2 | %21
w: stream- ing! And the|rock- ets' red|glare, the bombs|burst- ing in|air, Gave|
 A,,3!>(! B,, C,2 | E,4!>)! D, D, | C,2 F,2 B,,2 | E,4 ||!<(! E,2!<)! |!f! A,,2 B,,2 C,2 | %27
w: proof thro' the|night that our|flag was still|there.|O|say, does that|
 D,2 D,2 C,2 | B,,2!>(! (B,,C,) (D,=D,)!>)! |!>(! !fermata!E,4!>)! E, _D, | %30
w: Star- Span- gled|Ban- ner _ yet _|wave O'er the|
!<(! (C,3 E,) A, B,!<)! |!ff! C4 F, F, | E,3 E, E,2 | A,,4 |] %34
w: land _ of the|free and the|home of the|brave?|

